X:68
T: Vígan, vígan, víg angyalom
K: F
M: 4/4
L: 1/4
GGgg | aagg | fff2 | 
aagg | ffee | ddd2 | 
fff_e | dddc | BBB2 | 
dddc | BBAA | GGG2 | 

